assets/icon/stats/statistiken.svg

<?xml version="1.0" encoding="iso-8859-1"?>
<!-- Generator: Adobe Illustrator 19.0.0, SVG Export Plug-In . SVG Version: 6.00 Build 0)  -->
<svg version="1.1" id="Capa_1" xmlns="http://www.w3.org/2000/svg" xmlns:xlink="http://www.w3.org/1999/xlink" x="0px" y="0px"
	 viewBox="0 0 480 480" style="enable-background:new 0 0 480 480;" xml:space="preserve">
<g>
	<g>
		<path d="M272,176.232h-64c-4.418,0-8,3.582-8,8v224c0,4.418,3.582,8,8,8h64c4.418,0,8-3.582,8-8v-224
			C280,179.813,276.418,176.232,272,176.232z M264,400.232h-48v-208h48V400.232z"/>
	</g>
</g>
<g>
	<g>
		<path d="M464,144.232h-64c-4.418,0-8,3.582-8,8v256c0,4.418,3.582,8,8,8h64c4.418,0,8-3.582,8-8v-256
			C472,147.813,468.418,144.232,464,144.232z M456,400.232h-48v-240h48V400.232z"/>
	</g>
</g>
<g>
	<g>
		<path d="M368,320.232h-64c-4.418,0-8,3.582-8,8v80c0,4.418,3.582,8,8,8h64c4.418,0,8-3.582,8-8v-80
			C376,323.813,372.418,320.232,368,320.232z M360,400.232h-48v-64h48V400.232z"/>
	</g>
</g>
<g>
	<g>
		<path d="M80,208.232H16c-4.418,0-8,3.582-8,8v192c0,4.418,3.582,8,8,8h64c4.418,0,8-3.582,8-8v-192
			C88,211.813,84.418,208.232,80,208.232z M72,400.232H24v-176h48V400.232z"/>
	</g>
</g>
<g>
	<g>
		<path d="M176,256.232h-64c-4.418,0-8,3.582-8,8v144c0,4.418,3.582,8,8,8h64c4.418,0,8-3.582,8-8v-144
			C184,259.813,180.418,256.232,176,256.232z M168,400.232h-48v-128h48V400.232z"/>
	</g>
</g>
<g>
	<g>
		<path d="M432.465,7.769c-17.801-0.128-32.335,14.198-32.463,31.999c-0.065,8.988,3.626,17.595,10.183,23.743l-66.4,121.784
			c-6.015-1.665-12.404-1.37-18.24,0.84L263.776,93.44c11.835-13.125,10.789-33.36-2.337-45.194s-33.36-10.789-45.194,2.337
			c-8.695,9.644-10.701,23.586-5.077,35.29L162.6,126.296c-13.324-9.719-31.884-7.544-42.6,4.992L79.272,110.92
			c3.694-17.283-7.323-34.288-24.605-37.981c-17.283-3.694-34.288,7.322-37.981,24.605c-3.694,17.283,7.322,34.288,24.605,37.981
			c2.205,0.471,4.454,0.708,6.709,0.707c9.225-0.03,17.982-4.064,24-11.056l40.728,20.368c-3.843,17.25,7.026,34.35,24.276,38.193
			c17.25,3.843,34.35-7.026,38.193-24.276c1.563-7.015,0.719-14.352-2.397-20.829l48.568-40.424
			c8.371,6.195,19.299,7.759,29.072,4.16l61.752,92.696c-11.803,13.154-10.707,33.386,2.448,45.189
			c13.154,11.803,33.386,10.707,45.189-2.448c11.658-12.993,10.752-32.931-2.036-44.813l66.4-121.784
			c2.55,0.666,5.173,1.01,7.808,1.024c17.801,0.128,32.335-14.198,32.463-31.999S450.265,7.898,432.465,7.769z M48,120.232
			c-8.837,0-16-7.163-16-16s7.163-16,16-16s16,7.163,16,16S56.837,120.232,48,120.232z M144,168.232c-8.837,0-16-7.163-16-16
			s7.163-16,16-16s16,7.163,16,16S152.837,168.232,144,168.232z M240,88.232c-8.837,0-16-7.163-16-16s7.163-16,16-16s16,7.163,16,16
			S248.837,88.232,240,88.232z M336,232.232c-8.837,0-16-7.163-16-16s7.163-16,16-16s16,7.163,16,16S344.837,232.232,336,232.232z
			 M432,56.232c-8.837,0-16-7.163-16-16s7.163-16,16-16s16,7.163,16,16S440.837,56.232,432,56.232z"/>
	</g>
</g>
<g>
	<g>
		<path d="M472,424.232H8c-4.418,0-8,3.582-8,8v32c0,4.418,3.582,8,8,8h464c4.418,0,8-3.582,8-8v-32
			C480,427.813,476.418,424.232,472,424.232z M464,456.232H16v-16h448V456.232z"/>
	</g>
</g>
<g>
</g>
<g>
</g>
<g>
</g>
<g>
</g>
<g>
</g>
<g>
</g>
<g>
</g>
<g>
</g>
<g>
</g>
<g>
</g>
<g>
</g>
<g>
</g>
<g>
</g>
<g>
</g>
<g>
</g>
</svg>

<?xml version="1.0" encoding="UTF-8" standalone="no"?>
<!DOCTYPE svg PUBLIC "-//W3C//DTD SVG 1.1//EN" "http://www.w3.org/Graphics/SVG/1.1/DTD/svg11.dtd">
<svg width="100%" height="100%" viewBox="0 0 480 480" version="1.1" xmlns="http://www.w3.org/2000/svg" xmlns:xlink="http://www.w3.org/1999/xlink" xml:space="preserve" xmlns:serif="http://www.serif.com/" style="fill-rule:evenodd;clip-rule:evenodd;stroke-linejoin:round;stroke-miterlimit:2;">
    <g>
        <g>
            <path d="M272,176.232L208,176.232C203.582,176.232 200,179.814 200,184.232L200,408.232C200,412.65 203.582,416.232 208,416.232L272,416.232C276.418,416.232 280,412.65 280,408.232L280,184.232C280,179.813 276.418,176.232 272,176.232ZM264,400.232L216,400.232L216,192.232L264,192.232L264,400.232Z" style="fill:white;fill-rule:nonzero;"/>
        </g>
    </g>
    <g>
        <g>
            <path d="M464,144.232L400,144.232C395.582,144.232 392,147.814 392,152.232L392,408.232C392,412.65 395.582,416.232 400,416.232L464,416.232C468.418,416.232 472,412.65 472,408.232L472,152.232C472,147.813 468.418,144.232 464,144.232ZM456,400.232L408,400.232L408,160.232L456,160.232L456,400.232Z" style="fill:white;fill-rule:nonzero;"/>
        </g>
    </g>
    <g>
        <g>
            <path d="M368,320.232L304,320.232C299.582,320.232 296,323.814 296,328.232L296,408.232C296,412.65 299.582,416.232 304,416.232L368,416.232C372.418,416.232 376,412.65 376,408.232L376,328.232C376,323.813 372.418,320.232 368,320.232ZM360,400.232L312,400.232L312,336.232L360,336.232L360,400.232Z" style="fill:white;fill-rule:nonzero;"/>
        </g>
    </g>
    <g>
        <g>
            <path d="M80,208.232L16,208.232C11.582,208.232 8,211.814 8,216.232L8,408.232C8,412.65 11.582,416.232 16,416.232L80,416.232C84.418,416.232 88,412.65 88,408.232L88,216.232C88,211.813 84.418,208.232 80,208.232ZM72,400.232L24,400.232L24,224.232L72,224.232L72,400.232Z" style="fill:white;fill-rule:nonzero;"/>
        </g>
    </g>
    <g>
        <g>
            <path d="M176,256.232L112,256.232C107.582,256.232 104,259.814 104,264.232L104,408.232C104,412.65 107.582,416.232 112,416.232L176,416.232C180.418,416.232 184,412.65 184,408.232L184,264.232C184,259.813 180.418,256.232 176,256.232ZM168,400.232L120,400.232L120,272.232L168,272.232L168,400.232Z" style="fill:white;fill-rule:nonzero;"/>
        </g>
    </g>
    <g>
        <g>
            <path d="M432.465,7.769C414.664,7.641 400.13,21.967 400.002,39.768C399.937,48.756 403.628,57.363 410.185,63.511L343.785,185.295C337.77,183.63 331.381,183.925 325.545,186.135L263.776,93.44C275.611,80.315 274.565,60.08 261.439,48.246C248.313,36.412 228.079,37.457 216.245,50.583C207.55,60.227 205.544,74.169 211.168,85.873L162.6,126.296C149.276,116.577 130.716,118.752 120,131.288L79.272,110.92C82.966,93.637 71.949,76.632 54.667,72.939C37.384,69.245 20.379,80.261 16.686,97.544C12.992,114.827 24.008,131.832 41.291,135.525C43.496,135.996 45.745,136.233 48,136.232C57.225,136.202 65.982,132.168 72,125.176L112.728,145.544C108.885,162.794 119.754,179.894 137.004,183.737C154.254,187.58 171.354,176.711 175.197,159.461C176.76,152.446 175.916,145.109 172.8,138.632L221.368,98.208C229.739,104.403 240.667,105.967 250.44,102.368L312.192,195.064C300.389,208.218 301.485,228.45 314.64,240.253C327.794,252.056 348.026,250.96 359.829,237.805C371.487,224.812 370.581,204.874 357.793,192.992L424.193,71.208C426.743,71.874 429.366,72.218 432.001,72.232C449.802,72.36 464.336,58.034 464.464,40.233C464.592,22.432 450.265,7.898 432.465,7.769ZM48,120.232C39.163,120.232 32,113.069 32,104.232C32,95.395 39.163,88.232 48,88.232C56.837,88.232 64,95.395 64,104.232C64,113.069 56.837,120.232 48,120.232ZM144,168.232C135.163,168.232 128,161.069 128,152.232C128,143.395 135.163,136.232 144,136.232C152.837,136.232 160,143.395 160,152.232C160,161.069 152.837,168.232 144,168.232ZM240,88.232C231.163,88.232 224,81.069 224,72.232C224,63.395 231.163,56.232 240,56.232C248.837,56.232 256,63.395 256,72.232C256,81.069 248.837,88.232 240,88.232ZM336,232.232C327.163,232.232 320,225.069 320,216.232C320,207.395 327.163,200.232 336,200.232C344.837,200.232 352,207.395 352,216.232C352,225.069 344.837,232.232 336,232.232ZM432,56.232C423.163,56.232 416,49.069 416,40.232C416,31.395 423.163,24.232 432,24.232C440.837,24.232 448,31.395 448,40.232C448,49.069 440.837,56.232 432,56.232Z" style="fill:white;fill-rule:nonzero;"/>
        </g>
    </g>
    <g>
        <g>
            <path d="M472,424.232L8,424.232C3.582,424.232 0,427.814 0,432.232L0,464.232C0,468.65 3.582,472.232 8,472.232L472,472.232C476.418,472.232 480,468.65 480,464.232L480,432.232C480,427.813 476.418,424.232 472,424.232ZM464,456.232L16,456.232L16,440.232L464,440.232L464,456.232Z" style="fill:white;fill-rule:nonzero;"/>
        </g>
    </g>
</svg>
